X: 594
%
U:~=!turn!
T: Strathglass House
C:
O:Scotland
B:Keith Norman MacDonald : "The Skye collection of the best reels & strathspeys extant" : 1887
Z:Ralph Palmer
R:Strathspey
M:C
L:1/8
K:A mixolydian
"Slow" B | D/D/D D>E FAAB | A<Fd>F [A,3E3] F | D/D/D D>E (FA).A.B | A<Fd>F A3 :: B | A/A/A d>A B>Ad<F | E/E/E F>D [A,3E3] F |
A/A/A d>A TB>Ad>F | A/A/A dF A3 B | A/A/A d>A B>Ad<F | E/E/E F>D TE>FGB | A>FGE F>DD<B | AF d>F A3 |]


